dist/img/clients/titano.svg

<svg width="40" height="35" viewBox="0 0 40 35" fill="none" xmlns="http://www.w3.org/2000/svg">
<path d="M17.4752 12.6469C16.793 11.6774 15.8052 10.8483 14.2472 10.3285C14.9821 12.0046 14.188 13.2285 12.9888 15.0742C12.5764 15.7086 12.1073 16.4306 11.6543 17.2789L15.1559 23.3644L18.9601 15.9731C18.5875 14.8145 18.1716 13.6346 17.476 12.6469H17.4752ZM19.88 13.4812C22.2382 8.14731 26.3489 8.10374 31.1686 8.05276C31.9519 8.04448 32.756 8.0362 33.5964 7.99916L37.0587 1.83694L2.91757 1.73673L6.28949 7.88675C6.71789 7.90244 7.12641 7.91464 7.53234 7.92684C9.79844 7.99481 12.0053 8.06104 14.2943 8.53683L14.3583 8.55034C16.5578 9.18124 17.9317 10.308 18.8771 11.6517C19.2736 12.2247 19.6098 12.8379 19.88 13.4812ZM26.9697 15.1653C25.7645 13.1776 24.928 11.7972 25.4281 10.4126C23.4171 11.1167 21.8081 12.6347 20.8134 15.946L24.765 23.0668L28.2234 17.3268C27.7911 16.519 27.3562 15.8044 26.9697 15.1653ZM25.4878 25.2048L20.7758 33.6929L20.0504 35L19.2869 33.7168L15.2545 26.9407L15.2419 26.9651L14.4556 25.5987L9.92943 17.7351L9.69599 17.3294L9.90565 16.9111C10.4759 15.7748 11.0517 14.8886 11.5484 14.1252C12.6205 12.4748 13.2369 11.5262 11.9374 9.91236C10.4646 9.74461 8.98918 9.70017 7.48479 9.65529C6.89168 9.63743 6.29511 9.61957 5.73615 9.59647L5.24981 9.57599L5.01551 9.149L0.704646 1.28534L0 0L1.459 0.00391988L38.5302 0.112413L40 0.116769L39.2768 1.40385L34.8587 9.26708L34.6278 9.67838L34.1584 9.70453C33.1641 9.7603 32.1586 9.77075 31.182 9.78121C30.0745 9.79254 29.0101 9.80387 28.0064 9.8958C26.5456 11.1441 27.2282 12.273 28.4387 14.2633C28.9077 15.0372 29.4411 15.9164 29.9742 16.9586L30.1938 17.3874L29.9439 17.8026L25.4878 25.2048ZM16.1843 25.1347L19.9963 31.5448L23.7513 24.7839L19.9159 17.8775L16.1843 25.1347Z" fill="url(#paint0_linear_1_76)"/>
<defs>
<linearGradient id="paint0_linear_1_76" x1="20" y1="7.65625" x2="20" y2="35" gradientUnits="userSpaceOnUse">
<stop stop-color="#28E0B2"/>
<stop offset="0.9999" stop-color="#67FFD9"/>
<stop offset="1" stop-color="#16866A"/>
</linearGradient>
</defs>
</svg>

<svg width="40" height="35" fill="none" xmlns="http://www.w3.org/2000/svg"><path d="M17.475 12.647c-.682-.97-1.67-1.799-3.228-2.319.735 1.677-.059 2.9-1.258 4.746-.413.635-.882 1.357-1.335 2.205l3.502 6.085 3.804-7.39c-.373-1.16-.788-2.34-1.484-3.327Zm2.405.834c2.358-5.334 6.469-5.377 11.289-5.428.783-.009 1.587-.017 2.427-.054l3.463-6.162-34.141-.1 3.371 6.15c.429.015.837.028 1.243.04 2.266.068 4.473.134 6.762.61l.064.013c2.2.631 3.574 1.758 4.52 3.102a10.06 10.06 0 0 1 1.002 1.83Zm7.09 1.684c-1.205-1.987-2.042-3.368-1.542-4.752-2.01.704-3.62 2.222-4.615 5.533l3.952 7.12 3.458-5.74c-.432-.807-.867-1.522-1.253-2.16Zm-1.482 10.04-4.712 8.488L20.05 35l-.763-1.283-4.032-6.776-.013.024-.786-1.366-4.527-7.864-.233-.406.21-.418c.57-1.136 1.146-2.022 1.642-2.786 1.072-1.65 1.689-2.599.39-4.213-1.473-.167-2.949-.212-4.453-.257-.593-.018-1.19-.035-1.749-.059l-.486-.02-.234-.427L.705 1.285 0 0l1.459.004L38.53.112 40 .117l-.723 1.287-4.418 7.863-.231.411-.47.027c-.994.055-2 .066-2.976.076-1.107.012-2.172.023-3.176.115-1.46 1.248-.778 2.377.433 4.367.469.774 1.002 1.653 1.535 2.696l.22.428-.25.416-4.456 7.402Zm-9.304-.07 3.812 6.41 3.755-6.761-3.835-6.906-3.732 7.257Z" fill="url(#a)"/><defs><linearGradient id="a" x1="20" y1="7.656" x2="20" y2="35" gradientUnits="userSpaceOnUse"><stop stop-color="#28E0B2"/><stop offset="1" stop-color="#67FFD9"/><stop offset="1" stop-color="#16866A"/></linearGradient></defs></svg>
